icons/1_Primary/Salesforce.svg

<svg width="1024" height="1024" fill="none" xmlns="http://www.w3.org/2000/svg"><g clip-path="url(#a)"><path d="M512 1024c282.77 0 512-229.23 512-512S794.77 0 512 0 0 229.23 0 512s229.23 512 512 512Z" fill="#9ABEFF"/><path d="M348.78 272.27c-73.48 0-133 59.48-133 132.87A132.323 132.323 0 0 0 226.67 458a115.68 115.68 0 0 0-57.17 100.05c0 63.81 51.19 115.53 114.34 115.52 7.897.002 15.773-.819 23.5-2.45a123.159 123.159 0 0 0 229 5.57 108.001 108.001 0 0 0 141.45-44.41 147.034 147.034 0 0 0 29.1 2.89c81.55 0 147.66-66.69 147.66-149s-66.11-149-147.66-149a145.992 145.992 0 0 0-59.74 12.7c-21-37.44-60.47-62.66-105.67-62.66a120.073 120.073 0 0 0-86.86 37.29 132.828 132.828 0 0 0-105.78-52.29l-.06.06Zm219.65 167.41a30.997 30.997 0 0 1 5.4.41c1.327.237 2.64.55 3.93.94a1.061 1.061 0 0 1 .73 1.38l-3 8.34c-.25.63-.42 1-1.72.61a17.907 17.907 0 0 0-5.29-.82 13.465 13.465 0 0 0-4.26.62 8.132 8.132 0 0 0-3.33 2.05 11.587 11.587 0 0 0-2.79 4.24 54.892 54.892 0 0 0-2.1 9h12.69c1.07 0 1.41.49 1.3 1.28l-1.48 8.26a1.33 1.33 0 0 1-1.33 1.15h-13.12l-8.94 50.62a78.036 78.036 0 0 1-3.49 13.24 26.236 26.236 0 0 1-5.17 8.89 18.197 18.197 0 0 1-7.33 5.11 28.589 28.589 0 0 1-9.74 1.53 23.923 23.923 0 0 1-5.82-.56 31.406 31.406 0 0 1-3.63-1.06 1.193 1.193 0 0 1-.638-.667 1.194 1.194 0 0 1 .038-.923c.27-.79 2.62-7.22 2.94-8.07a1.099 1.099 0 0 1 1.44-.63 9.392 9.392 0 0 0 2.13.68c1.051.21 2.119.327 3.19.35a14.613 14.613 0 0 0 4.68-.67 7.21 7.21 0 0 0 3.63-2.79 20.422 20.422 0 0 0 2.78-5.66 62.482 62.482 0 0 0 2.37-9.78l8.9-49.69h-8.77c-1 0-1.41-.49-1.29-1.29l1.47-8.26a1.348 1.348 0 0 1 1.35-1.15h9l.49-2.68c1.35-8 4-14 8-18s9.64-6 16.81-6h-.03Zm-179.72 1.27h10.53a1.148 1.148 0 0 1 .828.355 1.124 1.124 0 0 1 .312.845v84.74a1.133 1.133 0 0 1-.308.852 1.154 1.154 0 0 1-.832.358h-10.52a1.128 1.128 0 0 1-.821-.358 1.143 1.143 0 0 1-.309-.842v-84.76a1.155 1.155 0 0 1 .07-.447 1.16 1.16 0 0 1 .608-.646c.14-.061.29-.094.442-.097Zm-95.07 24a39.945 39.945 0 0 1 20.14 5.4 1.309 1.309 0 0 1 .67 1.59l-2.85 7.69c-.5 1.31-1.87.44-1.87.44a40.531 40.531 0 0 0-17.85-4.58c-5.45 0-9 2.89-9 6.82v.25c0 4.58 6 6.53 13 8.8l1.2.37c9.24 2.92 19.1 7 19.1 18.09v.23c0 12-8.74 19.49-22.78 19.49a41.667 41.667 0 0 1-20.48-4.77 43.204 43.204 0 0 1-3.91-2.36c-.13-.2-.73-.43-.3-1.55l2.77-7.7a1.12 1.12 0 0 1 1.84-.64c.77.46 1.33.87 2.32 1.45a33.235 33.235 0 0 0 18.09 5.21c6.11 0 9.91-3.24 9.91-7.6v-.23c0-4.75-5.84-6.55-12.6-8.62l-1.5-.48c-9.27-2.64-19.18-6.45-19.18-18.18v-.24c0-11.13 9-18.9 21.84-18.9h1.41l.03.02Zm205.7 0a39.996 39.996 0 0 1 20.15 5.4 1.34 1.34 0 0 1 .67 1.59c-.26.68-2.6 7-2.85 7.69-.52 1.31-1.87.44-1.87.44a40.531 40.531 0 0 0-17.85-4.58c-5.45 0-9 2.89-9 6.82v.25c0 4.58 6 6.53 13 8.8l1.2.37c9.24 2.92 19.09 7 19.09 18.09v.23c0 12-8.73 19.49-22.77 19.49a41.621 41.621 0 0 1-20.48-4.77 44.117 44.117 0 0 1-3.92-2.36c-.13-.2-.73-.43-.29-1.55l2.78-7.7a1.188 1.188 0 0 1 .754-.798 1.192 1.192 0 0 1 1.086.158c.76.47 1.33.87 2.32 1.45a33.284 33.284 0 0 0 18.12 5.21c6.09 0 9.89-3.24 9.89-7.6v-.23c0-4.75-5.84-6.55-12.59-8.62l-1.5-.48c-9.28-2.64-19.2-6.45-19.2-18.18v-.24c0-11.13 9-18.9 21.85-18.9h1.4l.01.02Zm-149.28.13c7.93 0 14.06 1.84 18.23 5.49 4.17 3.65 6.31 9.57 6.31 17.52v36.32a1.227 1.227 0 0 1-.92 1.29s-1.46.41-2.77.71-6.11 1.28-10 1.94a72.946 72.946 0 0 1-12.06 1 47.539 47.539 0 0 1-10.51-1.07 21.88 21.88 0 0 1-8.08-3.51 16.427 16.427 0 0 1-5.17-6.21 20.581 20.581 0 0 1-1.84-9.07 18.55 18.55 0 0 1 7.9-15.7 25.682 25.682 0 0 1 8.28-3.84c3.192-.84 6.48-1.26 9.78-1.25 2.49 0 4.58.05 6.2.18 0 0 3.13.28 6.55.77V488c0-5.3-1.1-7.79-3.27-9.46-2.17-1.67-5.51-2.54-9.79-2.54 0 0-9.66-.12-17.31 4a5.227 5.227 0 0 1-.64.33.997.997 0 0 1-1.105-.288 1.015 1.015 0 0 1-.195-.352l-2.81-7.55a1.245 1.245 0 0 1 .35-1.58c3.57-2.79 12.23-4.47 12.23-4.47a65.242 65.242 0 0 1 10.64-1v-.01Zm357.82 0c2.944-.02 5.885.174 8.8.58a47.252 47.252 0 0 1 7.83 2 1.06 1.06 0 0 1 .73 1.39c-1.11 3.12-1.86 5.16-2.89 8-.45 1.21-1.36.81-1.36.81a39.174 39.174 0 0 0-12.39-1.77c-5.81 0-10.17 1.93-13 5.72s-4.49 8.81-4.51 15.45c0 7.29 1.8 12.69 5 16 3.2 3.31 7.74 5 13.42 5a41.919 41.919 0 0 0 6.43-.45 26.484 26.484 0 0 0 5.45-1.57 1.129 1.129 0 0 1 1.5.73l2.87 8a1.082 1.082 0 0 1-.47 1.4 48.391 48.391 0 0 1-16.61 3c-10.17 0-18-2.93-23.17-8.71-5.17-5.78-7.81-13.61-7.81-23.34a40.337 40.337 0 0 1 1.93-12.62 28.866 28.866 0 0 1 5.7-10.19 27.085 27.085 0 0 1 9.45-6.85 32.002 32.002 0 0 1 13.07-2.51l.03-.07Zm-266.93.05a28.844 28.844 0 0 1 11.37 2.31 22.985 22.985 0 0 1 7.54 5.74 24.646 24.646 0 0 1 5.07 9.3 42.496 42.496 0 0 1 1.19 17.1 1.172 1.172 0 0 1-1.15 1h-39.71c.25 6 1.69 10.3 4.62 13.2 2.93 2.9 7.42 4.66 13.58 4.67 9.43 0 13.46-1.87 16.31-2.93a1.143 1.143 0 0 1 .89.032 1.158 1.158 0 0 1 .6.658l2.59 7.27c.52 1.22.11 1.65-.33 1.9-2.5 1.37-8.54 3.93-20 4a39.464 39.464 0 0 1-14.41-2.32 25.432 25.432 0 0 1-15.74-16.71 42.568 42.568 0 0 1-1.81-12.68 44.764 44.764 0 0 1 1.76-12.67 29.093 29.093 0 0 1 5.38-10.32 26.138 26.138 0 0 1 9.14-7 31.086 31.086 0 0 1 13.11-2.56v.01Zm158.73 0a29.482 29.482 0 0 1 12.57 2.52 25.798 25.798 0 0 1 9 6.85 28.107 28.107 0 0 1 5.32 10.19 46.902 46.902 0 0 1 0 25.19 28.22 28.22 0 0 1-5.32 10.2 25.346 25.346 0 0 1-9 6.79 33.214 33.214 0 0 1-25.14 0 25.363 25.363 0 0 1-9-6.79 28.436 28.436 0 0 1-5.33-10.19 46.939 46.939 0 0 1 0-25.2 28.461 28.461 0 0 1 5.32-10.19 25.786 25.786 0 0 1 9-6.85 29.5 29.5 0 0 1 12.57-2.52h.01Zm159.26 0c3.905-.009 7.77.777 11.36 2.31a23.13 23.13 0 0 1 7.55 5.74 24.787 24.787 0 0 1 5.08 9.3 42.21 42.21 0 0 1 1.18 17.1 1.156 1.156 0 0 1-1.15 1h-39.7c.25 6 1.69 10.3 4.62 13.2 2.93 2.9 7.42 4.66 13.59 4.67 9.42 0 13.45-1.87 16.3-2.93a1.161 1.161 0 0 1 1.5.69l2.58 7.27c.52 1.22.1 1.65-.34 1.9-2.49 1.37-8.52 3.93-20 4a39.531 39.531 0 0 1-14.41-2.32 25.502 25.502 0 0 1-15.75-16.71 42.823 42.823 0 0 1-1.79-12.68 44.47 44.47 0 0 1 1.75-12.67 28.941 28.941 0 0 1 5.37-10.32 26.066 26.066 0 0 1 9.15-7 31.006 31.006 0 0 1 13.11-2.56v.01Zm-92.29.67c.56 0 1.15.02 1.77.06 2.252.157 4.483.535 6.66 1.13a1.08 1.08 0 0 1 .6 1.4c-.37 1.09-2.3 6.53-3 8.33-.26.69-.67 1.16-1.45 1.08a22.838 22.838 0 0 0-4.36-.52 19 19 0 0 0-5.32.75 11.886 11.886 0 0 0-4.9 2.94 14.646 14.646 0 0 0-3.48 5.84 34.91 34.91 0 0 0-1.32 10.41v29.58a1.187 1.187 0 0 1-.344.852 1.204 1.204 0 0 1-.846.358h-10.43a1.208 1.208 0 0 1-1.23-1.2v-59.14a1.173 1.173 0 0 1 .322-.843 1.167 1.167 0 0 1 .828-.357h10.17a1.149 1.149 0 0 1 1.15 1.2v4.84a17.946 17.946 0 0 1 6.71-4.94 18.528 18.528 0 0 1 8.46-1.71l.01-.06ZM440 475.7c-5.21 0-8.92 2-11.36 5.76a23.306 23.306 0 0 0-3.22 9.37h28.34c-.3-3.64-1-6.91-2.64-9.37-2.47-3.72-5.92-5.76-11.13-5.76h.01Zm318 0c-5.21 0-8.92 2-11.37 5.76a23.327 23.327 0 0 0-3.2 9.37h28.33c-.29-3.64-1-6.91-2.64-9.37-2.49-3.72-5.92-5.76-11.12-5.76Zm-158.32.25c-5.21 0-8.93 1.8-11.37 5.51-2.44 3.71-3.7 9.09-3.7 15.88 0 6.79 1.25 12.17 3.72 15.94 2.47 3.77 6.14 5.58 11.36 5.58s9-1.83 11.43-5.58c2.43-3.75 3.76-9.16 3.76-15.94 0-6.78-1.26-12.14-3.76-15.88s-6.22-5.51-11.43-5.51h-.01Zm-248.46 22.81c-8.08-.1-11.53 2.88-11.51 2.87-2.38 1.69-3.54 4.2-3.54 7.68a9.4 9.4 0 0 0 1.2 5.18 7.642 7.642 0 0 0 2.28 2.35s3.56 2.81 11.64 2.31a81.118 81.118 0 0 0 10.71-1.43v-18.05a82.618 82.618 0 0 0-10.78-.92v.01Z" fill="#fff"/></g><defs><clipPath id="a"><path fill="#fff" d="M0 0h1024v1024H0z"/></clipPath></defs></svg>

<svg width="1024" height="1024" viewBox="0 0 1024 1024" fill="none" xmlns="http://www.w3.org/2000/svg">
<g clip-path="url(#clip0_2_3384)">
<path d="M512 1024C794.77 1024 1024 794.77 1024 512C1024 229.23 794.77 0 512 0C229.23 0 0 229.23 0 512C0 794.77 229.23 1024 512 1024Z" fill="#9ABEFF"/>
<path d="M348.78 272.27C275.3 272.27 215.78 331.75 215.78 405.14C215.74 423.321 219.447 441.315 226.67 458C209.229 468.226 194.772 482.845 184.741 500.4C174.71 517.955 169.455 537.832 169.5 558.05C169.5 621.86 220.69 673.58 283.84 673.57C291.737 673.572 299.613 672.751 307.34 671.12C315.86 694.303 331.153 714.389 351.234 728.769C371.314 743.15 395.255 751.16 419.947 751.761C444.638 752.362 468.94 745.524 489.696 732.137C510.452 718.75 526.704 699.431 536.34 676.69C561.132 688.736 589.592 690.846 615.889 682.59C642.187 674.334 664.332 656.335 677.79 632.28C687.37 634.208 697.118 635.176 706.89 635.17C788.44 635.17 854.55 568.48 854.55 486.17C854.55 403.86 788.44 337.17 706.89 337.17C686.304 337.144 665.946 341.472 647.15 349.87C626.15 312.43 586.68 287.21 541.48 287.21C525.232 287.226 509.157 290.539 494.227 296.949C479.297 303.358 465.822 312.731 454.62 324.5C442.209 308.223 426.205 295.035 407.855 285.964C389.506 276.894 369.309 272.187 348.84 272.21L348.78 272.27ZM568.43 439.68C570.239 439.659 572.046 439.796 573.83 440.09C575.157 440.327 576.47 440.64 577.76 441.03C577.902 441.067 578.035 441.134 578.15 441.225C578.265 441.316 578.36 441.43 578.428 441.56C578.497 441.689 578.538 441.832 578.549 441.978C578.559 442.125 578.539 442.272 578.49 442.41L575.49 450.75C575.24 451.38 575.07 451.75 573.77 451.36C572.058 450.823 570.275 450.547 568.48 450.54C567.036 450.517 565.598 450.726 564.22 451.16C562.96 451.562 561.817 452.266 560.89 453.21C559.658 454.4 558.705 455.848 558.1 457.45C557.148 460.386 556.446 463.396 556 466.45H568.69C569.76 466.45 570.1 466.94 569.99 467.73L568.51 475.99C568.466 476.311 568.307 476.604 568.062 476.816C567.818 477.028 567.504 477.143 567.18 477.14H554.06L545.12 527.76C544.347 532.267 543.179 536.697 541.63 541C540.51 544.275 538.753 547.297 536.46 549.89C534.48 552.176 531.96 553.932 529.13 555C525.997 556.07 522.701 556.588 519.39 556.53C517.435 556.582 515.48 556.394 513.57 555.97C512.34 555.69 511.128 555.336 509.94 554.91C509.795 554.847 509.663 554.756 509.553 554.641C509.444 554.527 509.358 554.391 509.302 554.243C509.246 554.094 509.221 553.936 509.227 553.777C509.234 553.619 509.272 553.463 509.34 553.32C509.61 552.53 511.96 546.1 512.28 545.25C512.332 545.113 512.411 544.988 512.512 544.882C512.613 544.776 512.734 544.691 512.868 544.632C513.002 544.574 513.146 544.542 513.293 544.54C513.439 544.538 513.585 544.565 513.72 544.62C514.401 544.931 515.116 545.159 515.85 545.3C516.901 545.51 517.969 545.627 519.04 545.65C520.626 545.682 522.207 545.456 523.72 544.98C525.201 544.469 526.475 543.49 527.35 542.19C528.564 540.459 529.502 538.549 530.13 536.53C531.182 533.339 531.974 530.068 532.5 526.75L541.4 477.06H532.63C531.63 477.06 531.22 476.57 531.34 475.77L532.81 467.51C532.859 467.188 533.022 466.894 533.27 466.682C533.518 466.471 533.834 466.356 534.16 466.36H543.16L543.65 463.68C545 455.68 547.65 449.68 551.65 445.68C555.65 441.68 561.29 439.68 568.46 439.68H568.43ZM388.71 440.95H399.24C399.395 440.95 399.548 440.981 399.691 441.042C399.833 441.103 399.962 441.193 400.068 441.305C400.175 441.417 400.258 441.55 400.311 441.695C400.365 441.841 400.388 441.995 400.38 442.15V526.89C400.39 527.046 400.367 527.201 400.314 527.348C400.261 527.494 400.179 527.628 400.072 527.742C399.965 527.855 399.836 527.945 399.693 528.007C399.55 528.069 399.396 528.1 399.24 528.1H388.72C388.566 528.099 388.414 528.067 388.273 528.005C388.132 527.943 388.004 527.854 387.899 527.742C387.793 527.629 387.711 527.497 387.658 527.352C387.605 527.208 387.582 527.054 387.59 526.9V442.14C387.584 441.988 387.607 441.836 387.66 441.693C387.714 441.55 387.795 441.42 387.899 441.309C388.003 441.198 388.129 441.109 388.268 441.047C388.408 440.986 388.558 440.953 388.71 440.95ZM293.64 464.95C300.713 464.935 307.664 466.799 313.78 470.35C314.066 470.489 314.291 470.727 314.414 471.019C314.537 471.312 314.55 471.639 314.45 471.94L311.6 479.63C311.1 480.94 309.73 480.07 309.73 480.07C304.211 477.193 298.103 475.626 291.88 475.49C286.43 475.49 282.88 478.38 282.88 482.31V482.56C282.88 487.14 288.88 489.09 295.88 491.36L297.08 491.73C306.32 494.65 316.18 498.73 316.18 509.82V510.05C316.18 522.05 307.44 529.54 293.4 529.54C286.278 529.727 279.227 528.085 272.92 524.77C271.576 524.053 270.271 523.265 269.01 522.41C268.88 522.21 268.28 521.98 268.71 520.86L271.48 513.16C271.516 512.965 271.603 512.783 271.732 512.633C271.861 512.483 272.027 512.369 272.214 512.304C272.401 512.239 272.602 512.225 272.796 512.263C272.991 512.301 273.171 512.39 273.32 512.52C274.09 512.98 274.65 513.39 275.64 513.97C281.042 517.414 287.324 519.223 293.73 519.18C299.84 519.18 303.64 515.94 303.64 511.58V511.35C303.64 506.6 297.8 504.8 291.04 502.73L289.54 502.25C280.27 499.61 270.36 495.8 270.36 484.07V483.83C270.36 472.7 279.36 464.93 292.2 464.93H293.61L293.64 464.95ZM499.34 464.95C506.416 464.936 513.369 466.799 519.49 470.35C519.771 470.494 519.993 470.732 520.115 471.023C520.238 471.314 520.254 471.639 520.16 471.94C519.9 472.62 517.56 478.94 517.31 479.63C516.79 480.94 515.44 480.07 515.44 480.07C509.921 477.193 503.813 475.626 497.59 475.49C492.14 475.49 488.59 478.38 488.59 482.31V482.56C488.59 487.14 494.59 489.09 501.59 491.36L502.79 491.73C512.03 494.65 521.88 498.73 521.88 509.82V510.05C521.88 522.05 513.15 529.54 499.11 529.54C491.988 529.729 484.936 528.087 478.63 524.77C477.284 524.052 475.975 523.264 474.71 522.41C474.58 522.21 473.98 521.98 474.42 520.86L477.2 513.16C477.253 512.976 477.348 512.808 477.48 512.669C477.611 512.53 477.773 512.425 477.954 512.362C478.134 512.299 478.327 512.281 478.516 512.308C478.706 512.336 478.885 512.408 479.04 512.52C479.8 512.99 480.37 513.39 481.36 513.97C486.772 517.417 493.064 519.226 499.48 519.18C505.57 519.18 509.37 515.94 509.37 511.58V511.35C509.37 506.6 503.53 504.8 496.78 502.73L495.28 502.25C486 499.61 476.08 495.8 476.08 484.07V483.83C476.08 472.7 485.08 464.93 497.93 464.93H499.33L499.34 464.95ZM350.06 465.08C357.99 465.08 364.12 466.92 368.29 470.57C372.46 474.22 374.6 480.14 374.6 488.09V524.41C374.624 524.699 374.544 524.987 374.376 525.223C374.207 525.459 373.961 525.628 373.68 525.7C373.68 525.7 372.22 526.11 370.91 526.41C369.6 526.71 364.8 527.69 360.91 528.35C356.925 529.017 352.891 529.351 348.85 529.35C345.318 529.385 341.793 529.026 338.34 528.28C335.437 527.67 332.688 526.476 330.26 524.77C328.047 523.163 326.269 521.028 325.09 518.56C323.796 515.716 323.167 512.614 323.25 509.49C323.166 506.424 323.843 503.385 325.222 500.644C326.6 497.904 328.637 495.549 331.15 493.79C333.659 492.026 336.463 490.725 339.43 489.95C342.622 489.11 345.91 488.69 349.21 488.7C351.7 488.7 353.79 488.75 355.41 488.88C355.41 488.88 358.54 489.16 361.96 489.65V488C361.96 482.7 360.86 480.21 358.69 478.54C356.52 476.87 353.18 476 348.9 476C348.9 476 339.24 475.88 331.59 480C331.385 480.124 331.171 480.235 330.95 480.33C330.823 480.377 330.688 480.397 330.552 480.39C330.417 480.383 330.285 480.349 330.163 480.289C330.041 480.229 329.933 480.145 329.845 480.042C329.757 479.939 329.691 479.819 329.65 479.69L326.84 472.14C326.7 471.878 326.658 471.575 326.722 471.285C326.786 470.995 326.952 470.738 327.19 470.56C330.76 467.77 339.42 466.09 339.42 466.09C342.934 465.466 346.492 465.132 350.06 465.09V465.08ZM707.88 465.08C710.824 465.06 713.765 465.254 716.68 465.66C719.343 466.102 721.962 466.771 724.51 467.66C724.653 467.697 724.787 467.764 724.903 467.856C725.019 467.947 725.114 468.062 725.183 468.193C725.252 468.324 725.293 468.468 725.302 468.616C725.312 468.763 725.291 468.911 725.24 469.05C724.13 472.17 723.38 474.21 722.35 477.05C721.9 478.26 720.99 477.86 720.99 477.86C716.982 476.61 712.798 476.012 708.6 476.09C702.79 476.09 698.43 478.02 695.6 481.81C692.77 485.6 691.11 490.62 691.09 497.26C691.09 504.55 692.89 509.95 696.09 513.26C699.29 516.57 703.83 518.26 709.51 518.26C711.662 518.275 713.812 518.125 715.94 517.81C717.808 517.483 719.635 516.957 721.39 516.24C721.536 516.182 721.693 516.155 721.849 516.161C722.006 516.167 722.16 516.206 722.301 516.274C722.442 516.343 722.568 516.44 722.669 516.56C722.77 516.68 722.846 516.82 722.89 516.97L725.76 524.97C725.874 525.219 725.889 525.503 725.802 525.763C725.715 526.023 725.532 526.24 725.29 526.37C719.972 528.335 714.35 529.351 708.68 529.37C698.51 529.37 690.68 526.44 685.51 520.66C680.34 514.88 677.7 507.05 677.7 497.32C677.669 493.038 678.321 488.778 679.63 484.7C680.816 480.95 682.756 477.483 685.33 474.51C687.945 471.567 691.17 469.229 694.78 467.66C698.913 465.917 703.366 465.061 707.85 465.15L707.88 465.08ZM440.95 465.13C444.858 465.122 448.726 465.908 452.32 467.44C455.205 468.809 457.773 470.764 459.86 473.18C462.204 475.876 463.934 479.049 464.93 482.48C466.484 488.04 466.889 493.858 466.12 499.58C466.08 499.857 465.941 500.11 465.73 500.293C465.519 500.476 465.25 500.578 464.97 500.58H425.26C425.51 506.58 426.95 510.88 429.88 513.78C432.81 516.68 437.3 518.44 443.46 518.45C452.89 518.45 456.92 516.58 459.77 515.52C459.913 515.466 460.066 515.441 460.218 515.447C460.371 515.452 460.521 515.488 460.66 515.552C460.799 515.617 460.923 515.708 461.026 515.821C461.13 515.934 461.209 516.066 461.26 516.21L463.85 523.48C464.37 524.7 463.96 525.13 463.52 525.38C461.02 526.75 454.98 529.31 443.52 529.38C438.614 529.509 433.728 528.723 429.11 527.06C425.36 525.704 421.982 523.485 419.247 520.582C416.513 517.679 414.5 514.174 413.37 510.35C412.131 506.239 411.52 501.964 411.56 497.67C411.537 493.384 412.13 489.117 413.32 485C414.4 481.233 416.23 477.722 418.7 474.68C421.189 471.696 424.311 469.305 427.84 467.68C431.973 465.887 436.446 465.013 440.95 465.12V465.13ZM599.68 465.13C604.004 465.038 608.296 465.898 612.25 467.65C615.72 469.24 618.794 471.579 621.25 474.5C623.706 477.494 625.518 480.963 626.57 484.69C628.867 492.93 628.867 501.64 626.57 509.88C625.516 513.609 623.705 517.081 621.25 520.08C618.798 522.99 615.722 525.311 612.25 526.87C604.194 530.164 595.166 530.164 587.11 526.87C583.639 525.311 580.563 522.99 578.11 520.08C575.658 517.082 573.844 513.614 572.78 509.89C570.483 501.647 570.483 492.933 572.78 484.69C573.842 480.967 575.652 477.499 578.1 474.5C580.556 471.579 583.63 469.239 587.1 467.65C591.055 465.899 595.346 465.038 599.67 465.13H599.68ZM758.94 465.13C762.845 465.121 766.71 465.907 770.3 467.44C773.186 468.811 775.757 470.766 777.85 473.18C780.194 475.878 781.927 479.05 782.93 482.48C784.489 488.039 784.89 493.859 784.11 499.58C784.072 499.857 783.934 500.112 783.723 500.295C783.511 500.479 783.24 500.58 782.96 500.58H743.26C743.51 506.58 744.95 510.88 747.88 513.78C750.81 516.68 755.3 518.44 761.47 518.45C770.89 518.45 774.92 516.58 777.77 515.52C777.914 515.466 778.067 515.441 778.221 515.446C778.374 515.452 778.525 515.487 778.665 515.552C778.804 515.616 778.929 515.707 779.033 515.82C779.137 515.933 779.218 516.066 779.27 516.21L781.85 523.48C782.37 524.7 781.95 525.13 781.51 525.38C779.02 526.75 772.99 529.31 761.51 529.38C756.605 529.508 751.718 528.721 747.1 527.06C743.351 525.7 739.973 523.48 737.238 520.578C734.503 517.676 732.486 514.173 731.35 510.35C730.121 506.237 729.518 501.963 729.56 497.67C729.53 493.384 730.119 489.117 731.31 485C732.383 481.232 734.21 477.721 736.68 474.68C739.17 471.693 742.296 469.302 745.83 467.68C749.962 465.884 754.436 465.011 758.94 465.12V465.13ZM666.65 465.8C667.21 465.8 667.8 465.82 668.42 465.86C670.672 466.017 672.903 466.395 675.08 466.99C675.345 467.097 675.557 467.304 675.669 467.566C675.782 467.829 675.786 468.125 675.68 468.39C675.31 469.48 673.38 474.92 672.68 476.72C672.42 477.41 672.01 477.88 671.23 477.8C669.797 477.487 668.337 477.313 666.87 477.28C665.07 477.277 663.279 477.529 661.55 478.03C659.702 478.597 658.02 479.606 656.65 480.97C655.048 482.617 653.856 484.617 653.17 486.81C652.208 490.194 651.763 493.703 651.85 497.22V526.8C651.852 526.958 651.822 527.114 651.763 527.26C651.704 527.406 651.616 527.539 651.506 527.652C651.395 527.764 651.264 527.853 651.119 527.915C650.974 527.976 650.818 528.009 650.66 528.01H640.23C640.071 528.013 639.912 527.984 639.763 527.925C639.615 527.866 639.48 527.778 639.365 527.666C639.251 527.555 639.16 527.422 639.097 527.275C639.034 527.128 639.002 526.97 639 526.81V467.67C638.995 467.515 639.021 467.361 639.076 467.216C639.131 467.071 639.215 466.939 639.322 466.827C639.429 466.716 639.558 466.626 639.7 466.565C639.842 466.504 639.995 466.471 640.15 466.47H650.32C650.476 466.47 650.629 466.501 650.772 466.562C650.915 466.623 651.044 466.712 651.152 466.824C651.259 466.937 651.343 467.069 651.397 467.215C651.452 467.36 651.477 467.515 651.47 467.67V472.51C653.288 470.36 655.587 468.667 658.18 467.57C660.826 466.342 663.725 465.756 666.64 465.86L666.65 465.8ZM440 475.7C434.79 475.7 431.08 477.7 428.64 481.46C426.908 484.316 425.809 487.512 425.42 490.83H453.76C453.46 487.19 452.76 483.92 451.12 481.46C448.65 477.74 445.2 475.7 439.99 475.7H440ZM758 475.7C752.79 475.7 749.08 477.7 746.63 481.46C744.905 484.318 743.814 487.514 743.43 490.83H771.76C771.47 487.19 770.76 483.92 769.12 481.46C766.63 477.74 763.2 475.7 758 475.7ZM599.68 475.95C594.47 475.95 590.75 477.75 588.31 481.46C585.87 485.17 584.61 490.55 584.61 497.34C584.61 504.13 585.86 509.51 588.33 513.28C590.8 517.05 594.47 518.86 599.69 518.86C604.91 518.86 608.69 517.03 611.12 513.28C613.55 509.53 614.88 504.12 614.88 497.34C614.88 490.56 613.62 485.2 611.12 481.46C608.62 477.72 604.9 475.95 599.69 475.95H599.68ZM351.22 498.76C343.14 498.66 339.69 501.64 339.71 501.63C337.33 503.32 336.17 505.83 336.17 509.31C336.063 511.116 336.48 512.915 337.37 514.49C337.952 515.429 338.729 516.231 339.65 516.84C339.65 516.84 343.21 519.65 351.29 519.15C354.888 518.912 358.466 518.434 362 517.72V499.67C358.431 499.128 354.83 498.821 351.22 498.75V498.76Z" fill="white"/>
</g>
<defs>
<clipPath id="clip0_2_3384">
<rect width="1024" height="1024" fill="white"/>
</clipPath>
</defs>
</svg>
